svg/brush_variant.svg

<svg xmlns="http://www.w3.org/2000/svg" viewBox="0 0 24 24"><path d="M8 3C5.79 3 4 4.79 4 7v7c0 1.1.9 2 2 2h3v4c0 1.1.9 2 2 2h2c1.1 0 2-.9 2-2v-4h3c1.1 0 2-.9 2-2V3zm0 2h4v2h2V5h1v4h2V5h1v5H6V7c0-1.1.9-2 2-2m-2 9v-2h12v2z"/></svg>

<svg xmlns="http://www.w3.org/2000/svg" id="mdi-brush-variant" viewBox="0 0 24 24"><path d="M8 3C5.79 3 4 4.79 4 7V14C4 15.1 4.9 16 6 16H9V20C9 21.1 9.9 22 11 22H13C14.1 22 15 21.1 15 20V16H18C19.1 16 20 15.1 20 14V3H8M8 5H12V7H14V5H15V9H17V5H18V10H6V7C6 5.9 6.9 5 8 5M6 14V12H18V14H6Z" /></svg>
